site/img/deplova-logo.svg

<svg width="632" height="142" viewBox="0 0 632 142" fill="none" xmlns="http://www.w3.org/2000/svg">
<path d="M64.6352 1C68.0977 1 71.2404 3.03156 72.6656 6.19308L127.487 127.808C129.49 132.251 127.518 137.481 123.084 139.487C118.649 141.494 113.429 139.518 111.426 135.076L64.6352 31.2753L17.844 135.076C15.8411 139.518 10.621 141.494 6.18638 139.487C1.75193 137.481 -0.219726 132.251 1.78299 127.808L56.6046 6.19308L56.8934 5.61458C58.4256 2.78634 61.3889 1 64.6352 1Z" fill="url(#paint0_linear_44_110)"/>
<path opacity="0.85" d="M64.6352 56.9066C66.1831 56.9066 67.5861 57.82 68.2144 59.2361L99.5411 129.852C100.418 131.83 99.5268 134.147 97.5507 135.025C95.5743 135.903 93.2601 135.011 92.3823 133.033L64.6352 70.4851L36.8878 133.033C36.0101 135.011 33.696 135.903 31.7195 135.025C29.7434 134.147 28.8521 131.83 29.7291 129.852L61.0557 59.2361C61.684 57.82 63.0872 56.9066 64.6352 56.9066Z" fill="url(#paint1_linear_44_110)"/>
<path d="M207.265 109.61H175V30H207.223C216.116 30 223.774 31.5938 230.196 34.7813C236.646 37.9428 241.619 42.5038 245.114 48.4642C248.609 54.3986 250.357 61.4992 250.357 69.766C250.357 78.0587 248.609 85.1852 245.114 91.1456C241.647 97.1059 236.689 101.68 230.239 104.867C223.789 108.029 216.131 109.61 207.265 109.61ZM196.098 93.2058H206.455C211.343 93.2058 215.477 92.4543 218.859 90.9512C222.268 89.4223 224.84 86.9474 226.573 83.5267C228.335 80.08 229.216 75.4931 229.216 69.766C229.216 64.0389 228.335 59.4779 226.573 56.0831C224.811 52.6623 222.212 50.2005 218.773 48.6974C215.363 47.1684 211.158 46.404 206.157 46.404H196.098V93.2058Z" fill="white"/>
<path d="M290.877 110.737C284.029 110.737 278.119 109.506 273.146 107.044C268.202 104.556 264.394 101.019 261.723 96.4322C259.081 91.8194 257.759 86.3384 257.759 79.9893C257.759 73.8216 259.095 68.4314 261.766 63.8186C264.437 59.1799 268.202 55.5777 273.061 53.0122C277.92 50.4207 283.645 49.125 290.238 49.125C294.898 49.125 299.16 49.7858 303.024 51.1075C306.889 52.4291 310.227 54.3857 313.041 56.9771C315.854 59.5686 318.042 62.7691 319.604 66.5785C321.167 70.362 321.949 74.7027 321.949 79.6006V84.343H265.048V73.3034H302.555C302.527 71.282 302.001 69.4809 300.978 67.9002C299.955 66.3194 298.549 65.0884 296.759 64.2073C294.997 63.3003 292.965 62.8468 290.664 62.8468C288.334 62.8468 286.245 63.3262 284.398 64.2851C282.551 65.218 281.088 66.5008 280.008 68.1334C278.928 69.7401 278.36 71.5671 278.303 73.6143V84.8483C278.303 87.2843 278.829 89.4223 279.88 91.2622C280.932 93.0762 282.423 94.4886 284.356 95.4992C286.288 96.5099 288.589 97.0152 291.26 97.0152C293.107 97.0152 294.784 96.782 296.29 96.3155C297.796 95.8491 299.089 95.1623 300.169 94.2553C301.248 93.3483 302.058 92.234 302.598 90.9123L321.736 91.4177C320.94 95.3308 319.192 98.7386 316.493 101.641C313.822 104.518 310.313 106.759 305.965 108.366C301.618 109.947 296.588 110.737 290.877 110.737Z" fill="white"/>
<path d="M330.193 132V49.9024H350.822V60.1258H351.462C352.314 58.3117 353.522 56.5625 355.085 54.8781C356.676 53.1936 358.693 51.8201 361.137 50.7576C363.609 49.6692 366.564 49.125 370.003 49.125C374.549 49.125 378.797 50.2134 382.747 52.3902C386.725 54.5671 389.936 57.923 392.379 62.4581C394.823 66.9931 396.045 72.7721 396.045 79.795C396.045 86.5587 394.866 92.221 392.507 96.782C390.177 101.343 387.023 104.764 383.045 107.044C379.095 109.325 374.705 110.465 369.875 110.465C366.579 110.465 363.723 109.973 361.308 108.988C358.892 108.003 356.861 106.707 355.213 105.101C353.593 103.494 352.343 101.771 351.462 99.9306H351.036V132H330.193ZM350.609 79.7561C350.609 82.9695 351.078 85.7683 352.016 88.1524C352.982 90.5366 354.36 92.3895 356.15 93.7111C357.969 95.0069 360.143 95.6547 362.671 95.6547C365.229 95.6547 367.403 95.0069 369.193 93.7111C370.983 92.3895 372.333 90.5366 373.242 88.1524C374.18 85.7683 374.648 82.9695 374.648 79.7561C374.648 76.5427 374.18 73.7569 373.242 71.3986C372.333 69.0404 370.983 67.2134 369.193 65.9177C367.431 64.6219 365.257 63.9741 362.671 63.9741C360.114 63.9741 357.94 64.609 356.15 65.8788C354.36 67.1486 352.982 68.9627 352.016 71.3209C351.078 73.6791 350.609 76.4909 350.609 79.7561Z" fill="white"/>
<path d="M425.409 30V109.61H404.566V30H425.409Z" fill="white"/>
<path d="M466.835 110.737C459.958 110.737 454.048 109.454 449.104 106.889C444.188 104.297 440.395 100.695 437.724 96.0823C435.081 91.4436 433.76 86.0663 433.76 79.9505C433.76 73.8087 435.081 68.4314 437.724 63.8186C440.395 59.1799 444.188 55.5777 449.104 53.0122C454.048 50.4207 459.958 49.125 466.835 49.125C473.711 49.125 479.607 50.4207 484.523 53.0122C489.467 55.5777 493.261 59.1799 495.903 63.8186C498.574 68.4314 499.91 73.8087 499.91 79.9505C499.91 86.0663 498.574 91.4436 495.903 96.0823C493.261 100.695 489.467 104.297 484.523 106.889C479.607 109.454 473.711 110.737 466.835 110.737ZM466.963 96.3933C469.463 96.3933 471.58 95.6936 473.313 94.2942C475.047 92.8948 476.368 90.9512 477.277 88.4634C478.215 85.9756 478.684 83.0991 478.684 79.8338C478.684 76.5168 478.215 73.6143 477.277 71.1265C476.368 68.6387 475.047 66.6951 473.313 65.2957C471.58 63.8963 469.463 63.1966 466.963 63.1966C464.377 63.1966 462.189 63.8963 460.399 65.2957C458.637 66.6951 457.287 68.6387 456.35 71.1265C455.44 73.6143 454.986 76.5168 454.986 79.8338C454.986 83.0991 455.44 85.9756 456.35 88.4634C457.287 90.9512 458.637 92.8948 460.399 94.2942C462.189 95.6936 464.377 96.3933 466.963 96.3933Z" fill="white"/>
<path d="M569.584 49.9024L547.122 109.61H523.253L500.834 49.9024H522.785L534.847 91.029H535.529L547.633 49.9024H569.584Z" fill="white"/>
<path d="M591.873 110.62C587.696 110.62 583.987 109.986 580.748 108.716C577.537 107.42 574.994 105.476 573.119 102.885C571.272 100.268 570.348 96.9893 570.348 93.0503C570.348 89.7332 570.988 86.9344 572.266 84.654C573.545 82.3735 575.307 80.5206 577.551 79.0953C579.796 77.67 582.382 76.5945 585.309 75.8689C588.235 75.1174 591.361 74.612 594.686 74.3529C598.408 74.0419 601.406 73.718 603.679 73.3811C605.952 73.0183 607.6 72.513 608.623 71.8651C609.675 71.1913 610.2 70.2454 610.2 69.0274V68.8331C610.2 66.8377 609.447 65.2957 607.941 64.2073C606.435 63.1189 604.404 62.5747 601.846 62.5747C599.09 62.5747 596.874 63.1189 595.197 64.2073C593.521 65.2957 592.455 66.7988 592 68.7165L572.778 68.0945C573.346 64.4665 574.809 61.2271 577.168 58.3765C579.555 55.5 582.822 53.2454 586.971 51.6128C591.148 49.9543 596.163 49.125 602.017 49.125C606.194 49.125 610.044 49.5785 613.567 50.4855C617.091 51.3666 620.16 52.6623 622.774 54.3727C625.388 56.0572 627.406 58.1303 628.826 60.5922C630.275 63.0541 631 65.8659 631 69.0274V109.61H611.394V101.291H610.882C609.717 103.312 608.225 105.023 606.407 106.422C604.617 107.822 602.5 108.871 600.056 109.571C597.641 110.271 594.913 110.62 591.873 110.62ZM598.309 98.1814C600.553 98.1814 602.571 97.7668 604.361 96.9375C606.18 96.1082 607.629 94.968 608.708 93.5168C609.788 92.0396 610.328 90.3293 610.328 88.3857V82.7104C609.731 82.9954 609.007 83.2546 608.154 83.4878C607.33 83.721 606.421 83.9413 605.427 84.1486C604.432 84.3559 603.409 84.5373 602.358 84.6928C601.306 84.8483 600.298 84.9909 599.332 85.1204C597.371 85.4055 595.694 85.846 594.302 86.4421C592.938 87.0381 591.887 87.8155 591.148 88.7744C590.438 89.7073 590.082 90.8216 590.082 92.1174C590.082 94.0869 590.85 95.5899 592.384 96.6265C593.947 97.6631 595.922 98.1814 598.309 98.1814Z" fill="white"/>
<defs>
<linearGradient id="paint0_linear_44_110" x1="-9.76565" y1="166.75" x2="-9.76565" y2="-29.4037" gradientUnits="userSpaceOnUse">
<stop stop-color="#06B6D4"/>
<stop offset="1" stop-color="#EC4899"/>
</linearGradient>
<linearGradient id="paint1_linear_44_110" x1="-9.76567" y1="166.75" x2="-9.76567" y2="-29.4038" gradientUnits="userSpaceOnUse">
<stop stop-color="#06B6D4"/>
<stop offset="1" stop-color="#EC4899"/>
</linearGradient>
</defs>
</svg>

<svg xmlns="http://www.w3.org/2000/svg" width="632" height="142" fill="none" viewBox="0 0 632 142"><path fill="url(#a)" d="M64.635 1a8.81 8.81 0 0 1 8.03 5.193l54.822 121.615c2.003 4.443.031 9.673-4.403 11.679-4.435 2.007-9.655.031-11.658-4.411l-46.79-103.8-46.792 103.8c-2.003 4.442-7.223 6.418-11.658 4.411-4.434-2.006-6.406-7.236-4.403-11.679L56.605 6.193l.288-.578A8.81 8.81 0 0 1 64.635 1"/><path fill="url(#b)" d="M64.635 56.907c1.548 0 2.951.913 3.58 2.33l31.326 70.615a3.916 3.916 0 1 1-7.159 3.181L64.635 70.485l-27.747 62.548a3.916 3.916 0 1 1-7.159-3.181l31.327-70.616a3.92 3.92 0 0 1 3.58-2.33" opacity=".85"/><path fill="#fff" d="M207.265 109.61H175V30h32.223q13.34 0 22.973 4.781 9.675 4.743 14.918 13.683 5.243 8.902 5.243 21.302 0 12.44-5.243 21.38-5.2 8.94-14.875 13.721-9.675 4.743-22.974 4.743m-11.167-16.404h10.357q7.331 0 12.404-2.255 5.114-2.294 7.714-7.424 2.643-5.17 2.643-13.761t-2.643-13.683q-2.642-5.13-7.8-7.386-5.115-2.293-12.616-2.293h-10.059zm94.779 17.531q-10.272 0-17.731-3.693-7.416-3.732-11.423-10.612-3.964-6.92-3.964-16.443 0-9.251 4.007-16.17 4.007-6.959 11.295-10.807 7.288-3.887 17.177-3.887 6.99 0 12.786 1.983 5.797 1.982 10.017 5.87 4.22 3.886 6.563 9.6 2.345 5.676 2.345 13.023v4.742h-56.901v-11.04h37.507q-.042-3.032-1.577-5.403t-4.219-3.693q-2.643-1.36-6.095-1.36-3.495 0-6.266 1.438-2.77 1.4-4.39 3.848-1.62 2.41-1.705 5.481v11.234q0 3.654 1.577 6.414 1.577 2.722 4.476 4.237t6.904 1.516q2.77 0 5.03-.7 2.259-.7 3.879-2.06a8.5 8.5 0 0 0 2.429-3.343l19.138.506q-1.194 5.869-5.243 10.223-4.006 4.315-10.528 6.725-6.521 2.371-15.088 2.371M330.193 132V49.902h20.629v10.224h.64q1.278-2.72 3.623-5.248 2.386-2.526 6.052-4.12 3.708-1.633 8.866-1.633 6.819 0 12.744 3.265 5.967 3.265 9.632 10.068t3.666 17.337q0 10.146-3.538 16.987-3.495 6.842-9.462 10.262-5.925 3.421-13.17 3.421-4.944 0-8.567-1.477t-6.095-3.887q-2.43-2.41-3.751-5.17h-.426V132zm20.416-52.244q0 4.82 1.407 8.396 1.449 3.576 4.134 5.56 2.729 1.943 6.521 1.943 3.837 0 6.522-1.944 2.685-1.982 4.049-5.559 1.406-3.576 1.406-8.396t-1.406-8.357q-1.364-3.538-4.049-5.481-2.643-1.944-6.522-1.944-3.836 0-6.521 1.905t-4.134 5.442q-1.407 3.537-1.407 8.435M425.409 30v79.61h-20.843V30zm41.426 80.737q-10.315 0-17.731-3.848-7.374-3.888-11.38-10.807-3.964-6.958-3.964-16.131 0-9.213 3.964-16.132 4.006-6.959 11.38-10.807 7.416-3.887 17.731-3.887 10.314 0 17.688 3.887 7.417 3.849 11.38 10.807 4.007 6.918 4.007 16.132 0 9.173-4.007 16.131-3.963 6.92-11.38 10.807-7.374 3.848-17.688 3.848m.128-14.344q3.75 0 6.35-2.099t3.964-5.83q1.407-3.732 1.407-8.63 0-4.976-1.407-8.708-1.363-3.73-3.964-5.83t-6.35-2.1q-3.879 0-6.564 2.1-2.643 2.1-4.049 5.83-1.365 3.731-1.364 8.708 0 4.898 1.364 8.63 1.406 3.73 4.049 5.83 2.685 2.1 6.564 2.1m102.621-46.492-22.462 59.708h-23.869l-22.419-59.708h21.951l12.062 41.127h.682l12.104-41.127zm22.289 60.718q-6.266 0-11.125-1.904-4.817-1.944-7.629-5.831-2.77-3.926-2.771-9.835 0-4.976 1.918-8.396 1.919-3.42 5.285-5.559 3.367-2.137 7.758-3.226 4.39-1.128 9.377-1.516 5.583-.466 8.993-.972 3.41-.544 4.944-1.516 1.577-1.011 1.577-2.838v-.194q0-2.993-2.259-4.626-2.258-1.632-6.095-1.632-4.134 0-6.649 1.632-2.514 1.633-3.197 4.51l-19.222-.623q.852-5.441 4.39-9.717 3.58-4.316 9.803-6.764 6.265-2.488 15.046-2.488 6.266 0 11.55 1.36 5.286 1.322 9.207 3.888 3.922 2.526 6.052 6.22Q631 64.284 631 69.026v40.583h-19.606v-8.319h-.512a17.3 17.3 0 0 1-4.475 5.131q-2.685 2.1-6.351 3.149-3.623 1.05-8.183 1.049m6.436-12.439q3.367 0 6.052-1.243 2.729-1.245 4.347-3.421 1.62-2.216 1.62-5.131V82.71q-.895.428-2.174.778-1.236.35-2.727.66-1.493.312-3.069.545-1.578.233-3.026.427-2.942.428-5.03 1.322-2.046.895-3.154 2.332-1.066 1.4-1.066 3.343 0 2.955 2.302 4.51 2.344 1.554 5.925 1.554"/><defs><linearGradient id="a" x1="-9.766" x2="-9.766" y1="166.75" y2="-29.404" gradientUnits="userSpaceOnUse"><stop stop-color="#06b6d4"/><stop offset="1" stop-color="#ec4899"/></linearGradient><linearGradient id="b" x1="-9.766" x2="-9.766" y1="166.75" y2="-29.404" gradientUnits="userSpaceOnUse"><stop stop-color="#06b6d4"/><stop offset="1" stop-color="#ec4899"/></linearGradient></defs></svg>
